icons/folder_type_azure_opened.svg

<svg xmlns="http://www.w3.org/2000/svg" viewBox="0 0 32 32"><defs><linearGradient id="a" x1="-231.439" x2="-231.456" y1="265.977" y2="265.902" gradientTransform="matrix(161.096 0 0 -241.217 37302.352 64171.913)" gradientUnits="userSpaceOnUse"><stop offset="0" stop-color="#114a8b"/><stop offset="1" stop-color="#0669bc"/></linearGradient><linearGradient id="b" x1="-231.867" x2="-231.873" y1="265.942" y2="265.94" gradientTransform="matrix(224.69 0 0 -241.214 52119.718 64171.207)" gradientUnits="userSpaceOnUse"><stop offset="0" stop-opacity=".3"/><stop offset=".071" stop-opacity=".2"/><stop offset=".321" stop-opacity=".1"/><stop offset=".623" stop-opacity=".05"/><stop offset="1" stop-opacity="0"/></linearGradient><linearGradient id="c" x1="-232.001" x2="-231.981" y1="265.98" y2="265.905" gradientTransform="matrix(169.755 0 0 -241.217 39406.126 64171.912)" gradientUnits="userSpaceOnUse"><stop offset="0" stop-color="#3ccbf4"/><stop offset="1" stop-color="#2892df"/></linearGradient></defs><path d="M27.4 5.5h-9.2l-2.1 4.2H4.3v4H.5l3.8 12.8h25.2v-21Zm-7.2 2.1h7.1v2.1h-8.1Zm5.5 6.1H6.6v-1.9h20.8v7.626Z" style="fill:#7db4d3"/><path d="M17.646 12.272h5.928L17.421 30.5a.945.945 0 0 1-.9.643h-4.609a.944.944 0 0 1-.894-1.245l5.733-16.986a.945.945 0 0 1 .9-.643Z" style="fill:url(#a)"/><path d="M26.26 24.5h-9.4a.435.435 0 0 0-.3.753l6.04 5.637a.95.95 0 0 0 .648.255h5.322Z" style="fill:#0078d4"/><path d="M17.646 12.272a.937.937 0 0 0-.9.655l-5.721 16.959a.942.942 0 0 0 .89 1.261h4.732a1.011 1.011 0 0 0 .776-.66l1.141-3.364 4.077 3.8a.965.965 0 0 0 .607.221h5.3L26.226 24.5h-6.78L23.6 12.272Z" style="fill:url(#b)"/><path d="M25.217 12.914a.944.944 0 0 0-.894-.642h-6.606a.944.944 0 0 1 .894.642L24.344 29.9a.944.944 0 0 1-.894 1.246h6.606a.944.944 0 0 0 .894-1.246Z" style="fill:url(#c)"/></svg>

<svg xmlns="http://www.w3.org/2000/svg" xmlns:xlink="http://www.w3.org/1999/xlink" viewBox="0 0 32 32"><defs><linearGradient id="a" x1="-231.439" y1="265.977" x2="-231.456" y2="265.902" gradientTransform="matrix(161.096, 0, 0, -241.217, 37302.352, 64171.913)" gradientUnits="userSpaceOnUse"><stop offset="0" stop-color="#114a8b"/><stop offset="1" stop-color="#0669bc"/></linearGradient><linearGradient id="b" x1="-231.867" y1="265.942" x2="-231.873" y2="265.94" gradientTransform="matrix(224.69, 0, 0, -241.214, 52119.718, 64171.207)" gradientUnits="userSpaceOnUse"><stop offset="0" stop-opacity="0.3"/><stop offset="0.071" stop-opacity="0.2"/><stop offset="0.321" stop-opacity="0.1"/><stop offset="0.623" stop-opacity="0.05"/><stop offset="1" stop-opacity="0"/></linearGradient><linearGradient id="c" x1="-232.001" y1="265.98" x2="-231.981" y2="265.905" gradientTransform="matrix(169.755, 0, 0, -241.217, 39406.126, 64171.912)" gradientUnits="userSpaceOnUse"><stop offset="0" stop-color="#3ccbf4"/><stop offset="1" stop-color="#2892df"/></linearGradient></defs><title>folder_type_azure_opened</title><path d="M27.4,5.5H18.2L16.1,9.7H4.3v4H.5L4.3,26.5H29.5V5.5ZM20.2,7.6h7.1V9.7H19.2Zm5.5,6.1H6.6V11.8H27.4v7.626Z" style="fill:#7db4d3"/><path d="M17.646,12.272h5.928L17.421,30.5a.945.945,0,0,1-.9.643H11.912a.944.944,0,0,1-.894-1.245l5.733-16.986a.945.945,0,0,1,.9-.643Z" style="fill:url(#a)"/><path d="M26.26,24.5h-9.4a.435.435,0,0,0-.3.753l6.04,5.637a.95.95,0,0,0,.648.255h5.322Z" style="fill:#0078d4"/><path d="M17.646,12.272a.937.937,0,0,0-.9.655L11.025,29.886a.942.942,0,0,0,.89,1.261h4.732a1.011,1.011,0,0,0,.776-.66l1.141-3.364,4.077,3.8a.965.965,0,0,0,.607.221h5.3L26.226,24.5l-6.78,0L23.6,12.272Z" style="fill:url(#b)"/><path d="M25.217,12.914a.944.944,0,0,0-.894-.642H17.717a.944.944,0,0,1,.894.642L24.344,29.9a.944.944,0,0,1-.894,1.246h6.606A.944.944,0,0,0,30.95,29.9Z" style="fill:url(#c)"/></svg>
